svgs/open2share.svg

<svg width="192" height="192" viewBox="0 0 192 192" fill="none" xmlns="http://www.w3.org/2000/svg">
<path d="M52 34C52 27.3726 57.3726 22 64 22H128C134.627 22 140 27.3726 140 34V158C140 164.627 134.627 170 128 170H64C57.3726 170 52 164.627 52 158V34Z" stroke="black" stroke-width="12" stroke-linecap="round" stroke-linejoin="round"/>
<path d="M77 107C77 107 88.1834 94.3105 102.452 94.3105M102.452 94.3105V85L115 94.3105L102.452 103.621L102.452 94.3105Z" stroke="black" stroke-width="10" stroke-linecap="round" stroke-linejoin="round"/>
</svg>

<svg xmlns="http://www.w3.org/2000/svg" width="192" height="192" fill="none" viewBox="0 0 192 192"><path stroke="#000" stroke-linecap="round" stroke-linejoin="round" stroke-width="12" d="M52 34c0-6.627 5.373-12 12-12h64c6.627 0 12 5.373 12 12v124c0 6.627-5.373 12-12 12H64c-6.627 0-12-5.373-12-12z"/><path stroke="#000" stroke-linecap="round" stroke-linejoin="round" stroke-width="10" d="M77 107s11.183-12.69 25.452-12.69m0 0V85L115 94.31l-12.548 9.311z"/></svg>
